img/svg/facebook.svg

<svg width="17" height="28" viewBox="0 0 17 28" fill="none" xmlns="http://www.w3.org/2000/svg">
<path d="M5.04 27.333L5 15.666H0V10.666H5V7.33302C5 2.84002 7.787 0.666016 11.8 0.666016C13.72 0.666016 15.373 0.799016 15.853 0.866016V5.57302H13.066C10.893 5.57302 10.466 6.61302 10.466 8.13302V10.666H16.666L14.999 15.666H10.466V27.333H5.039H5.04Z" fill="black"/>
</svg>

<svg xmlns="http://www.w3.org/2000/svg" width="17" height="28" fill="none"><path fill="#000" d="M5.04 27.333 5 15.666H0v-5h5V7.333C5 2.84 7.787.666 11.8.666c1.92 0 3.573.133 4.053.2v4.707h-2.787c-2.173 0-2.6 1.04-2.6 2.56v2.533h6.2l-1.667 5h-4.533v11.667H5.039h.001Z"/></svg>
